X: 365
T: 366. O Welt, sieh hier dein Leben
N: Derived from chor366.krn
C: Johann Sebastian Bach
%%abc-version 2.0
%%abcx-abcm2ps-target-version 5.9.1 (29 Sep 2008)
%%abc-creator hum2abc beta
%%abcx-conversion-date 2019/03/11 17:28:19
%%abc-edited-by Craig Stuart Sapp
%%humdrum-veritas 3567499990
%%humdrum-veritas-data 117705636
%%
%%barnumbers 0
L: 1/8
M: C
%%staves [1 2 3 4]
V: 1 clef=treble
V: 2 clef=treble
V: 3 clef=treble-8
V: 4 clef=bass
K: A
[V:1] cB [I:setbarnb 1]| 
[V:2] AG | 
[V:3] e2 | 
[V:4] A,2 | 
[V:1] A2B2cde2 | 
[V:2] F3GA3E | 
[V:3] fed2e2A2 | 
[V:4] DCB,2A,2C,2 | 
[V:1] d4!fermata!c2cd | 
[V:2] F2E2!fermata!E2A2 | 
[V:3] A2G2!fermata!A2e2 | 
[V:4] B,,2E,2!fermata!A,,2A,B, | 
[V:1] e2e2B2cB | 
[V:2] AG AB GFE2 | 
[V:3] e2e2edc2 | 
[V:4] C2C,D,E,2A,G, | 
[V:1] A4!fermata!G2E2 | 
[V:2] E2^D2!fermata!E2B,2 | 
[V:3] c2B2!fermata!B2G2 | 
[V:4] F,2B,,2!fermata!E,2E,=D, | 
[V:1] A2B2cB cd | 
[V:2] EFG2AG AB | 
[V:3] A2d2ed ef | 
[V:4] C,D, C,B,,A,,2A,D, | 
[V:1] !fermata!B4z2cB | 
[V:2] !fermata!G4x2G2 | 
[V:3] !fermata!e4x2^e2 | 
[V:4] !fermata!E,4z2C,2 | 
[V:1] A2B2cde2 | 
[V:2] F2=E2EDC2 | 
[V:3] cd cBA2A2 | 
[V:4] F,2G,2A,B, A,G, | 
[V:1] d4!fermata!c2cd | 
[V:2] CB,/A,/B,2!fermata!A,2A2 | 
[V:3] Af2e!fermata!e2f2 | 
[V:4] F,2G,2!fermata!A,2F,2 | 
[V:1] e2e2B2cB | 
[V:2] Bc BA GFG2 | 
[V:3] e2B2BA GF | 
[V:4] G,A, G,F, E,F, E,^D, | 
[V:1] A4!fermata!G2E2 | 
[V:2] GF/E/F2!fermata!E2E=D | 
[V:3] Ec2B!fermata!B2cB | 
[V:4] C,2^D,2!fermata!E,2C,2 | 
[V:1] A2B2cd ed | 
[V:2] CD CB,A,2A2 | 
[V:3] A2GFE3F | 
[V:4] F,2E,=D, C,B,, C,D, | 
[V:1] c2B2!fermata!A2 |]  
[V:2] EF B,E!fermata!C2 |]  
[V:3] GA2G!fermata!E2 |]  
[V:4] E,D,E,2!fermata!A,,2 |]  



